build/assets/images/proyectos/logos/logo-unicaja.svg

<svg width="200" height="200" viewBox="0 0 200 200" fill="none" xmlns="http://www.w3.org/2000/svg">
<rect width="200" height="200" fill="white"/>
<g clip-path="url(#clip0)">
<path fill-rule="evenodd" clip-rule="evenodd" d="M106 102V112.175C106 115.425 103.895 116.688 101.642 116.688C99.1648 116.688 97.3754 115.109 97.3754 112.484V102H93.0736V112.386C93.0736 118.014 96.6947 120.491 101.705 120.491C106.407 120.491 110.302 118.386 110.302 112.358V102H106ZM117.291 107.902H113.614V120.246H117.291V112.295C118.253 110.779 118.933 110.253 119.824 110.253C120.877 110.253 121.649 110.996 121.649 112.73V120.246H125.298V112.421C125.298 108.772 122.884 107.691 121.06 107.691C119.572 107.691 118.428 108.281 117.284 109.67L117.291 107.902ZM132.07 107.902H128.421V120.246H132.07V107.902ZM145.368 116.87C143.726 117.523 142.954 117.733 142.063 117.733C139.993 117.733 138.596 116.281 138.596 114.084C138.596 111.916 139.986 110.526 142.217 110.526C143.116 110.526 144.232 110.835 145.186 111.361V108.484C143.979 107.986 142.463 107.677 141.256 107.677C137.417 107.677 134.667 110.337 134.667 114.112C134.667 117.951 137.326 120.484 141.41 120.484C142.646 120.484 143.881 120.203 145.368 119.649V116.87ZM159.719 117.186C158.856 117.832 158.575 117.895 158.33 117.895C157.93 117.895 157.712 117.649 157.712 117.032V111.432C157.712 108.709 155.733 107.691 152.793 107.691C150.94 107.691 149.235 108.189 147.719 109.179V112.337C148.891 111.067 150.561 110.267 152.021 110.267C153.628 110.267 154.126 111.193 154.063 112.337C149.179 113.944 147.137 114.533 147.137 117.474C147.137 119.018 148.526 120.505 150.386 120.505C151.656 120.505 152.828 120.105 154.217 119.116C154.498 120.105 155.053 120.505 156.288 120.505C157.249 120.505 158.702 120.007 159.719 119.361V117.186ZM154.063 117.242C153.446 117.832 152.702 118.168 152.021 118.168C151.375 118.168 150.849 117.579 150.849 116.87C150.849 115.635 151.867 115.109 154.063 114.274V117.242ZM165.039 107.902H161.354V119.656C161.354 121.67 160.8 122.66 159.467 122.87L160.639 126.393C162.491 126.211 165.031 124.786 165.031 120.575V107.902H165.039ZM179.979 117.186C179.116 117.832 178.835 117.895 178.589 117.895C178.189 117.895 177.972 117.649 177.972 117.032V111.432C177.972 108.709 175.993 107.691 173.053 107.691C171.2 107.691 169.495 108.189 167.979 109.179V112.337C169.151 111.067 170.821 110.267 172.281 110.267C173.888 110.267 174.386 111.193 174.323 112.337C169.439 113.944 167.396 114.533 167.396 117.474C167.396 119.018 168.786 120.505 170.646 120.505C171.916 120.505 173.088 120.105 174.477 119.116C174.758 120.105 175.312 120.505 176.547 120.505C177.509 120.505 178.961 120.007 179.979 119.361V117.186ZM174.316 117.242C173.698 117.832 172.954 118.168 172.274 118.168C171.621 118.168 171.102 117.579 171.102 116.87C171.102 115.635 172.119 115.109 174.316 114.274V117.242V117.242Z" fill="black"/>
<path fill-rule="evenodd" clip-rule="evenodd" d="M20.2666 126.954H179.579V129.214H20.2666V126.954Z" fill="black"/>
<path fill-rule="evenodd" clip-rule="evenodd" d="M59.2353 122.008C39.13 105.397 20.0212 89.7831 20.0212 89.7831C20.0212 89.7831 24.9686 82.2953 33.0388 77.1023L59.2353 122.008ZM57.4107 115.916C46.5546 97.7339 34.2177 76.6041 34.2177 76.6041C34.2177 76.6041 41.3897 72.0287 48.2879 70.8497L57.4107 115.916ZM57.7195 110.66C54.3791 94.0497 50.0774 70.6392 50.0774 70.6392C50.0774 70.6392 55.8949 69.5234 62.323 70.3585L57.7195 110.66ZM59.8248 105.551C62.1476 87.1164 63.8177 70.5129 63.8177 70.5129C63.8177 70.5129 69.6353 71.0673 73.4388 73.2076C73.4318 73.2076 68.5756 84.7094 59.8248 105.551ZM62.73 102.618C70.8353 83.8462 75.0107 73.6988 75.0107 73.6988C75.0107 73.6988 78.5967 74.6883 82.2458 77.783L62.73 102.618ZM66.2248 100.295C80.5756 82.2041 83.2072 78.4637 83.2072 78.4637C83.2072 78.4637 84.4423 78.6813 87.909 82.4848L66.2248 100.295ZM69.2563 99.6497C86.5756 85.6988 89.0528 83.8462 89.0528 83.8462C89.0528 83.8462 91.2142 85.8883 92.2669 87.8041L69.2563 99.6497ZM75.537 98.0988C87.4107 91.9725 93.2563 89.2848 93.2563 89.2848C93.2563 89.2848 93.9019 89.9374 94.6458 91.6988L75.537 98.0988ZM79.1581 98.1971C95.516 93.1866 95.0528 93.1585 95.0528 93.1585C95.0528 93.1585 95.7055 94.3023 95.7055 95.1374L79.1581 98.1971Z" fill="black"/>
<path fill-rule="evenodd" clip-rule="evenodd" d="M126.07 101.593C126.063 99.7543 127.544 98.2596 129.382 98.2526C129.39 98.2526 129.404 98.2526 129.411 98.2526C131.256 98.2526 132.751 99.7473 132.751 101.593C132.751 103.417 131.235 104.933 129.411 104.933C127.565 104.933 126.077 103.439 126.07 101.593Z" fill="black"/>
<path fill-rule="evenodd" clip-rule="evenodd" d="M159.446 101.719C159.446 99.8035 160.989 98.2526 162.877 98.2526C164.786 98.2456 166.337 99.7965 166.344 101.705C166.344 101.712 166.344 101.712 166.344 101.719C166.344 103.607 164.8 105.151 162.877 105.151C160.982 105.144 159.453 103.614 159.446 101.719Z" fill="black"/>
</g>
<defs>
<clipPath id="clip0">
<rect width="160" height="59.2281" fill="white" transform="translate(20 70)"/>
</clipPath>
</defs>
</svg>

<svg width="200" height="200" fill="none" xmlns="http://www.w3.org/2000/svg"><path fill="#fff" d="M0 0h200v200H0z"/><g clip-path="url(#clip0)" fill-rule="evenodd" clip-rule="evenodd" fill="#000"><path d="M106 102v10.175c0 3.25-2.105 4.513-4.358 4.513-2.477 0-4.267-1.579-4.267-4.204V102h-4.301v10.386c0 5.628 3.62 8.105 8.631 8.105 4.702 0 8.597-2.105 8.597-8.133V102H106zm11.291 5.902h-3.677v12.344h3.677v-7.951c.962-1.516 1.642-2.042 2.533-2.042 1.053 0 1.825.743 1.825 2.477v7.516h3.649v-7.825c0-3.649-2.414-4.73-4.238-4.73-1.488 0-2.632.59-3.776 1.979l.007-1.768zm14.779 0h-3.649v12.344h3.649v-12.344zm13.298 8.968c-1.642.653-2.414.863-3.305.863-2.07 0-3.467-1.452-3.467-3.649 0-2.168 1.39-3.558 3.621-3.558.899 0 2.015.309 2.969.835v-2.877c-1.207-.498-2.723-.807-3.93-.807-3.839 0-6.589 2.66-6.589 6.435 0 3.839 2.659 6.372 6.743 6.372 1.236 0 2.471-.281 3.958-.835v-2.779zm14.351.316c-.863.646-1.144.709-1.389.709-.4 0-.618-.246-.618-.863v-5.6c0-2.723-1.979-3.741-4.919-3.741-1.853 0-3.558.498-5.074 1.488v3.158c1.172-1.27 2.842-2.07 4.302-2.07 1.607 0 2.105.926 2.042 2.07-4.884 1.607-6.926 2.196-6.926 5.137 0 1.544 1.389 3.031 3.249 3.031 1.27 0 2.442-.4 3.831-1.389.281.989.836 1.389 2.071 1.389.961 0 2.414-.498 3.431-1.144v-2.175zm-5.656.056c-.617.59-1.361.926-2.042.926-.646 0-1.172-.589-1.172-1.298 0-1.235 1.018-1.761 3.214-2.596v2.968zm10.976-9.34h-3.685v11.754c0 2.014-.554 3.004-1.887 3.214l1.172 3.523c1.852-.182 4.392-1.607 4.392-5.818v-12.673h.008zm14.94 9.284c-.863.646-1.144.709-1.39.709-.4 0-.617-.246-.617-.863v-5.6c0-2.723-1.979-3.741-4.919-3.741-1.853 0-3.558.498-5.074 1.488v3.158c1.172-1.27 2.842-2.07 4.302-2.07 1.607 0 2.105.926 2.042 2.07-4.884 1.607-6.927 2.196-6.927 5.137 0 1.544 1.39 3.031 3.25 3.031 1.27 0 2.442-.4 3.831-1.389.281.989.835 1.389 2.07 1.389.962 0 2.414-.498 3.432-1.144v-2.175zm-5.663.056c-.618.59-1.362.926-2.042.926-.653 0-1.172-.589-1.172-1.298 0-1.235 1.017-1.761 3.214-2.596v2.968zm-154.049 9.712h159.312v2.26H20.267v-2.26zm38.968-4.946C39.13 105.397 20.021 89.783 20.021 89.783s4.948-7.488 13.018-12.68l26.196 44.905zm-1.824-6.092C46.555 97.734 34.218 76.604 34.218 76.604s7.172-4.575 14.07-5.754l9.123 45.066zm.308-5.256c-3.34-16.61-7.642-40.02-7.642-40.02s5.818-1.117 12.246-.281l-4.604 40.301zm2.106-5.109a1585.895 1585.895 0 003.993-35.038s5.817.554 9.62 2.695c-.006 0-4.862 11.501-13.613 32.343zm2.905-2.933c8.105-18.772 12.28-28.92 12.28-28.92s3.587.99 7.236 4.085L62.73 102.618zm3.495-2.323c14.35-18.09 16.982-21.831 16.982-21.831s1.235.217 4.702 4.02l-21.684 17.811zm3.031-.645c17.32-13.951 19.797-15.804 19.797-15.804s2.161 2.042 3.214 3.958L69.257 99.65zm6.281-1.551c11.874-6.127 17.72-8.814 17.72-8.814s.645.652 1.389 2.414l-19.109 6.4zm3.621.098c16.358-5.01 15.895-5.038 15.895-5.038s.653 1.143.653 1.978l-16.548 3.06zm46.912 3.396a3.325 3.325 0 013.312-3.34h.029a3.34 3.34 0 013.34 3.34c0 1.824-1.516 3.34-3.34 3.34a3.344 3.344 0 01-3.341-3.34zm33.376.126c0-1.915 1.543-3.466 3.431-3.466a3.462 3.462 0 013.467 3.452v.014c0 1.888-1.544 3.432-3.467 3.432a3.44 3.44 0 01-3.431-3.432z"/></g><defs><clipPath id="clip0"><path fill="#fff" transform="translate(20 70)" d="M0 0h160v59.228H0z"/></clipPath></defs></svg>
